scalable/apps/system-software-update.svg

<?xml version="1.0" encoding="UTF-8" standalone="no"?>
<!-- Generator: Adobe Illustrator 19.0.0, SVG Export Plug-In . SVG Version: 6.00 Build 0)  -->

<svg
   xmlns:dc="http://purl.org/dc/elements/1.1/"
   xmlns:cc="http://creativecommons.org/ns#"
   xmlns:rdf="http://www.w3.org/1999/02/22-rdf-syntax-ns#"
   xmlns:svg="http://www.w3.org/2000/svg"
   xmlns="http://www.w3.org/2000/svg"
   xmlns:xlink="http://www.w3.org/1999/xlink"
   xmlns:sodipodi="http://sodipodi.sourceforge.net/DTD/sodipodi-0.dtd"
   xmlns:inkscape="http://www.inkscape.org/namespaces/inkscape"
   version="1.1"
   id="Capa_1"
   x="0px"
   y="0px"
   viewBox="0 0 48 48"
   xml:space="preserve"
   sodipodi:docname="system-software-update.svg"
   width="48"
   height="48"
   inkscape:version="0.92.3 (2405546, 2018-03-11)"><metadata
   id="metadata41"><rdf:RDF><cc:Work
       rdf:about=""><dc:format>image/svg+xml</dc:format><dc:type
         rdf:resource="http://purl.org/dc/dcmitype/StillImage" /><dc:title /></cc:Work></rdf:RDF></metadata><defs
   id="defs39"><linearGradient
     inkscape:collect="always"
     id="linearGradient863"><stop
       style="stop-color:#000000;stop-opacity:1;"
       offset="0"
       id="stop859" /><stop
       style="stop-color:#000000;stop-opacity:0;"
       offset="1"
       id="stop861" /></linearGradient><clipPath
     clipPathUnits="userSpaceOnUse"
     id="clipPath1443"><rect
       ry="1.4527029"
       y="3"
       x="2"
       height="43"
       width="43"
       id="rect1445"
       style="fill:#4dc7c9;fill-opacity:1;stroke:none;stroke-width:0.19905733;stroke-linejoin:round;stroke-miterlimit:4;stroke-dasharray:none;stroke-opacity:0" /></clipPath><linearGradient
     inkscape:collect="always"
     xlink:href="#linearGradient863"
     id="linearGradient885"
     gradientUnits="userSpaceOnUse"
     x1="9.5876951"
     y1="8.8226128"
     x2="42.305882"
     y2="41.199081" /></defs><sodipodi:namedview
   pagecolor="#ffffff"
   bordercolor="#666666"
   borderopacity="1"
   objecttolerance="10"
   gridtolerance="10"
   guidetolerance="10"
   inkscape:pageopacity="0"
   inkscape:pageshadow="2"
   inkscape:window-width="1366"
   inkscape:window-height="719"
   id="namedview37"
   showgrid="false"
   showguides="true"
   inkscape:guide-bbox="true"
   inkscape:zoom="2.65625"
   inkscape:cx="24"
   inkscape:cy="24"
   inkscape:window-x="0"
   inkscape:window-y="25"
   inkscape:window-maximized="1"
   inkscape:current-layer="Capa_1"
   inkscape:snap-smooth-nodes="true" />


<g
   id="g6"
   transform="translate(0,-464)">
</g>
<g
   id="g8"
   transform="translate(0,-464)">
</g>
<g
   id="g10"
   transform="translate(0,-464)">
</g>
<g
   id="g12"
   transform="translate(0,-464)">
</g>
<g
   id="g14"
   transform="translate(0,-464)">
</g>
<g
   id="g16"
   transform="translate(0,-464)">
</g>
<g
   id="g18"
   transform="translate(0,-464)">
</g>
<g
   id="g20"
   transform="translate(0,-464)">
</g>
<g
   id="g22"
   transform="translate(0,-464)">
</g>
<g
   id="g24"
   transform="translate(0,-464)">
</g>
<g
   id="g26"
   transform="translate(0,-464)">
</g>
<g
   id="g28"
   transform="translate(0,-464)">
</g>
<g
   id="g30"
   transform="translate(0,-464)">
</g>
<g
   id="g32"
   transform="translate(0,-464)">
</g>
<g
   id="g34"
   transform="translate(0,-464)">
</g>
<g
   transform="matrix(0.90165135,0,0,-0.90165135,2.852882,41.655682)"
   id="g888" /><g
   id="g897"><path
     id="path847"
     d="m 24.000976,0.3457035 c -5.833461,0 -10.522198,1.1203776 -13.935546,3.3320313 -4.1011933,2.6574037 -6.2695315,6.9015122 -6.2695315,12.2714832 0,7.226706 5.8062658,16.88549 7.5859375,19.673828 2.031747,3.183082 4.250107,6.079783 6.246093,8.15625 2.542362,2.644284 4.56815,3.875 6.373047,3.875 1.804991,0 3.829009,-1.230625 6.371093,-3.875 1.995894,-2.076376 4.214349,-4.973077 6.246094,-8.15625 C 38.397835,32.8348 44.204101,23.175924 44.204101,15.949219 44.204193,10.57934 42.037899,6.3352307 37.936523,3.6777348 34.523359,1.4660811 29.834346,0.3457035 24.000976,0.3457035 Z"
     style="fill:#c83737;stroke-width:0.0924025" /><path
     inkscape:connector-curvature="0"
     id="path857"
     d="m 28.867188,45.050781 c 0.506231,-0.442782 0.951875,-0.697241 1.503906,-1.271484 1.995894,-2.076377 4.214348,-4.973078 6.246094,-8.15625 0.889835,-1.394123 2.786911,-4.505287 4.460937,-8.171875 0.837013,-1.833294 1.619261,-3.806143 2.191406,-5.771484 0.336193,-1.154837 0.388306,-2.246438 0.548828,-3.367188 L 34.259766,8.7539062 20.611328,6.6816406 15.435547,10.353516 33.552734,28.470703 27.466797,31.074219 12.201172,15.810547 11.765625,19.482422 6.386719,22.572266 Z"
     style="fill:url(#linearGradient885);fill-opacity:1;stroke:none;stroke-width:1px;stroke-linecap:butt;stroke-linejoin:miter;stroke-opacity:1;opacity:0.8" /><path
     id="path2"
     d="m 24.239257,4.8984379 c 7.946754,0 14.429688,6.4809811 14.429687,14.4277331 0,7.946754 -6.482932,14.429688 -14.429687,14.429688 -3.973377,0 -7.592337,-1.617728 -10.201171,-4.226563 -1.876692,-1.876691 -3.235861,-4.278841 -3.853516,-6.957031 H 6.3876954 l 5.8144526,-6.761718 5.816406,6.761718 h -4.105468 c 0.527974,1.68369 1.456347,3.186816 2.675781,4.40625 1.960242,1.960242 4.65159,3.169922 7.65039,3.169922 5.9976,0 10.822266,-4.824666 10.822266,-10.822266 0,-5.997598 -4.824667,-10.8203112 -10.822266,-10.8203112 -2.498294,0 -4.782513,0.8382739 -6.609374,2.2519532 -0.963248,0.994131 -3.804131,-1.3858416 -2.724609,-2.4316407 2.516765,-2.1363366 5.783466,-3.4277344 9.333983,-3.4277344 z"
     style="fill:#f9f9f9;stroke-width:0.0924025" /><path
     inkscape:connector-curvature="0"
     id="path879"
     d="m 3.9248031,14.736311 c -0.027364,0.413027 -0.1289046,0.785349 -0.1289046,1.212889 0,7.226721 5.8082189,16.885492 7.5878895,19.673839 2.031748,3.18308 4.248155,6.079787 6.244141,8.156258 2.542362,2.644271 4.568149,3.874999 6.373047,3.874999 1.804991,0 3.829008,-1.230651 6.371093,-3.874998 1.995895,-2.076397 4.214349,-4.973103 6.246094,-8.156258 1.779671,-2.788272 7.585936,-12.447119 7.585936,-19.67384 8e-6,-0.42754 -0.101556,-0.799824 -0.128919,-1.212888 -0.08353,1.592163 -0.311131,3.248012 -0.804688,4.943357 -0.572145,1.965354 -1.35439,3.938192 -2.191404,5.771489 -1.674025,3.666596 -3.571101,6.777752 -4.460936,8.171869 -2.031746,3.183194 -4.2502,6.079861 -6.246094,8.156258 -1.271043,1.322193 -2.411549,2.291489 -3.460938,2.929663 -1.049388,0.638211 -2.00766,0.945335 -2.910156,0.945335 -0.902449,0 -1.858349,-0.307276 -2.908203,-0.945335 C 20.042907,44.070737 18.899098,43.101439 17.627917,41.779285 15.631942,39.702812 13.415536,36.806107 11.383788,33.623026 10.493952,32.228872 8.5968752,29.117716 6.9228498,25.451158 6.0858372,23.617861 5.3035891,21.645023 4.7314438,19.679669 4.2378919,17.984324 4.0083049,16.328475 3.9248031,14.736311 Z"
     style="opacity:0.5;fill:#000000;stroke-width:0.0924025" /></g></svg>

<svg xmlns="http://www.w3.org/2000/svg" xmlns:xlink="http://www.w3.org/1999/xlink" width="48" height="48"><defs><linearGradient id="a"><stop offset="0"/><stop offset="1" stop-opacity="0"/></linearGradient><linearGradient xlink:href="#a" id="b" gradientUnits="userSpaceOnUse" x1="9.59" y1="8.82" x2="42.31" y2="41.2"/></defs><path d="M24 .35c-5.83 0-10.52 1.12-13.93 3.33-4.1 2.66-6.27 6.9-6.27 12.27 0 7.23 5.8 16.88 7.58 19.67a54.48 54.48 0 0 0 6.25 8.16c2.54 2.64 4.57 3.87 6.37 3.87 1.8 0 3.83-1.23 6.37-3.87 2-2.08 4.22-4.97 6.25-8.16 1.78-2.79 7.58-12.44 7.58-19.67 0-5.37-2.16-9.61-6.26-12.27C34.52 1.47 29.84.35 24 .35z" fill="#c83737"/><path d="M28.87 45.05c.5-.44.95-.7 1.5-1.27 2-2.08 4.22-4.97 6.25-8.16.89-1.4 2.78-4.5 4.46-8.17a43.2 43.2 0 0 0 2.19-5.77c.34-1.16.39-2.25.55-3.37l-9.56-9.56-13.65-2.07-5.17 3.67 18.11 18.12-6.08 2.6L12.2 15.81l-.43 3.67-5.38 3.1z" fill="url(#b)" opacity=".8"/><path d="M24.24 4.9c7.95 0 14.43 6.48 14.43 14.43 0 7.94-6.48 14.43-14.43 14.43a14.4 14.4 0 0 1-14.06-11.19h-3.8l5.82-6.76 5.82 6.76h-4.1a10.8 10.8 0 0 0 10.32 7.58c6 0 10.82-4.83 10.82-10.82a10.8 10.8 0 0 0-17.43-8.57c-.96 1-3.8-1.39-2.72-2.43a14.4 14.4 0 0 1 9.33-3.43z" fill="#f9f9f9"/><path d="M3.92 14.74c-.02.4-.12.78-.12 1.2 0 7.24 5.8 16.9 7.58 19.68a54.48 54.48 0 0 0 6.25 8.16c2.54 2.64 4.57 3.87 6.37 3.87 1.8 0 3.83-1.23 6.37-3.87 2-2.08 4.22-4.97 6.25-8.16 1.78-2.79 7.58-12.44 7.58-19.67 0-.43-.1-.8-.12-1.21a21.6 21.6 0 0 1-.81 4.94 43.2 43.2 0 0 1-2.2 5.77 69.59 69.59 0 0 1-4.45 8.17 54.47 54.47 0 0 1-6.25 8.16 17.98 17.98 0 0 1-3.46 2.93c-1.05.64-2 .94-2.9.94-.91 0-1.87-.3-2.92-.94-1.05-.64-2.2-1.6-3.46-2.93-2-2.08-4.21-4.97-6.25-8.16a69.6 69.6 0 0 1-4.46-8.17 43.2 43.2 0 0 1-2.19-5.77 21.6 21.6 0 0 1-.8-4.94z" opacity=".5"/></svg>
